X: 12856
T: Fermanagh Curves, The
R: jig
M: 6/8
K: Dmajor
B|:dgd gag|fdd dzd|^dbb bba|gee eze|
^daa aba|gee aba|gfe dBA|FBB BzB:|
|:ebb bba|gee eze|=ceg a ab|gee eze|
^daa aba|gee aba|gfe dBA|1 FBB BzB:|2 FBB B3||

